-----BEGIN PGP SIGNATURE-----

iQIzBAABCgAdFiEE5lNsig89mn/viEurf+4n1trg3FUFAmmgXzYACgkQf+4n1trg
3FXpzA//Zc/rRYr2tIbP9QAoCF1yfLT1T+uaoNVFp8K36qh7O90qkUVOcBXiNf5Q
geqjAD09PsMiIgcrI5d/6RkyalDmqn1tftd9ahaQ650cgbgNJ7GbGeeuqFvUq6YM
MxsFGJoR1OPbiH214F4q6647kZwi4izfwLJTPy5vAfJbTOHYN+HT609ZXFmo8R5w
AnijdxJSdXGI25Gz2WLuFDqQLTvzqJPhrxP/ouiuotHkPKmN6rn1LGBUjFSIwHAr
H8Rde60oB8J9xpmUXbv18GaypX9rLkJEqq6QARa9Ue+aJB3vJaQwovCDef3tVVjH
0GCZzDoHply+2VquqUK/VPNAIio3Yjgybh2igED9tDSVl0BT0F38fyEZJJJCFMOf
JfJOM6npRazdqmarhAishjBg2l1y1OjqcktE7Xdy2diaISeWelR1QQejP6fgsD7t
zud05vir+zDmOp+PPuEQWqFnMP8ek69BX/CpTTKi1Mwf+ER5Ejn1LpT78nSBUgFp
/ewd1MuVrY/iILEgnUfFH0vezy6DNTrVkptTHb5Vevg4XfCyZiMX8rjL8OrgVFXw
Xjwy4zCEbHNw+mq7L2QF5yDDt3xAwJT0TAh3Rb9/9IFgTe9bKAWW+mc8OWgxX8aS
jxClCTFQA9WJsEpvYO/yII9pkIQiK6AWO10mTBO1JjUIWg+7xoU=
=xky9
-----END PGP SIGNATURE-----
